X: 2317
T: Bag Of Ice, The
R: reel
M: 4/4
K: Gmajor
|:GE|DGBG dGBG|DGBG AGEG|~=F2 AF cFAF|dcAF G2:|
|:AB|~c2 Bc cdef|gB ~B2 GABd|~c2 Bc cdef|gedB G2:|

